svgs/light/loveseat.svg

<svg xmlns="http://www.w3.org/2000/svg" viewBox="0 0 512 512"><!-- Font Awesome Pro 6.0.0-alpha2 by @fontawesome - https://fontawesome.com License - https://fontawesome.com/license (Commercial License) --><path d="M448 224C412.654 224 384 252.652 384 288H128C128 252.652 99.346 224 64 224S0 252.652 0 288V448C0 465.672 14.326 480 32 480H96C113.674 480 128 465.672 128 448H384C384 465.672 398.326 480 416 480H480C497.674 480 512 465.672 512 448V288C512 252.652 483.346 224 448 224ZM96 448H32V288C32 270.355 46.355 256 64 256S96 270.355 96 288V448ZM384 416H128V320H384V416ZM480 448H416V288C416 270.355 430.355 256 448 256S480 270.355 480 288V448ZM80 192C88.844 192 96 184.844 96 176V144C96 99.875 131.891 64 176 64H336C380.109 64 416 99.875 416 144V176C416 184.844 423.156 192 432 192S448 184.844 448 176V144C448 82.25 397.75 32 336 32H176C114.25 32 64 82.25 64 144V176C64 184.844 71.156 192 80 192Z"/></svg>

<svg xmlns="http://www.w3.org/2000/svg" viewBox="0 0 512 512"><!--! Font Awesome Pro 6.3.0 by @fontawesome - https://fontawesome.com License - https://fontawesome.com/license (Commercial License) Copyright 2023 Fonticons, Inc. --><path d="M448 224c-35.35 0-64 28.65-64 64H128c0-35.35-28.65-64-64-64S0 252.7 0 288v160c0 17.67 14.33 32 32 32h64c17.67 0 32-14.33 32-32h256c0 17.67 14.33 32 32 32h64c17.67 0 32-14.33 32-32V288C512 252.7 483.3 224 448 224zM96 448H32V288c0-17.64 14.36-32 32-32s32 14.36 32 32V448zM384 416H128v-96h256V416zM480 448h-64V288c0-17.64 14.36-32 32-32s32 14.36 32 32V448zM80 192C88.84 192 96 184.8 96 176v-32C96 99.88 131.9 64 176 64h160C380.1 64 416 99.88 416 144v32C416 184.8 423.2 192 432 192S448 184.8 448 176v-32C448 82.25 397.8 32 336 32h-160C114.3 32 64 82.25 64 144v32C64 184.8 71.16 192 80 192z"/></svg>
